X: 37022
T: Thorn Bush
O: Trad
R: strathspey
B: RSCDS 37-4
Z: 1997 by John Chambers <jc:trillian.mit.edu>
N: Kerr's Collection
M: C
L: 1/8
%
K: A
%%staffsep 35
E \
| "A"A>B c>A "D"F<A "A"E>C | "Bm"B,<B B>c "E7"d/c/B/A/ G<B \
| "A"A>B c>A "D"F<A "A"E>C | "Bm"D<F "E7"E>G [1 "A"A<A, A, :|2 "A"A/A/A A ||
e \
| "A"d/c/B/A/ e>A "D"f<a "A"e>c | "Bm"d>B d/c/B/A/ "E7"G<B B>e \
| "A"d/c/B/A/ e>A "D"f<a "A"e>c | "Bm"d>B "E7"d/c/B/A/ "A"E<A A |]
e \
| "A"d/c/B/A/ e>A "D"f<a "A"e>c | "Bm"d>B d/c/B/A/ "E7"G<B B>d \
| "A"(3cAc (3ece "D"(3fdf (3agf | "E7"(3edc (3cBA "A"E<A A |]
%%center Book37/37041-Thorn_Bush-JC.abc

%%sep 1 1 500
%%sep 1 1 500

